assets/pokerchip_frame_dark.svg

<svg fill="none" height="267" viewBox="0 0 267 267" width="267" xmlns="http://www.w3.org/2000/svg" xmlns:xlink="http://www.w3.org/1999/xlink"><clipPath id="a"><path d="m0 0h267v267h-267z"/></clipPath><g clip-path="url(#a)" stroke="#000" stroke-miterlimit="10" stroke-width="3"><path d="m265.58 124.451c-.355-5.013-.954-9.981-1.819-14.816-4.125-22.5793-13.952-43.1843-27.993-60.2406-5.434-6.5652-11.446-12.6202-18.011-18.0543-16.57-13.6405-36.489-23.37746-58.382-27.70251-8.363-1.68567-17.014-2.55068-25.886-2.55068-8.873 0-17.568.86501-25.953 2.55068-21.893 4.36941-41.8786 14.12851-58.4039 27.81341-6.4327 5.3675-12.3774 11.3117-17.701 17.7438-14.1296 17.1006-24.02264 37.7278-28.19278 60.4172-.99817 5.568-1.64144 11.268-1.95198 17.079-.11091 2.24-.17745 4.547-.17745 6.809s.06654 4.569.17745 6.809c.31054 6.299 1.06472 12.487 2.24034 18.498 4.30323 22.247 14.19622 42.497 28.12632 59.265 5.257 6.321 11.1129 12.176 17.4347 17.433 16.7693 13.884 37.0211 23.732 59.2693 27.991 8.141 1.574 16.547 2.417 25.132 2.417 8.584 0 16.946-.82 25.065-2.373 22.204-4.258 42.456-14.062 59.247-27.924 6.455-5.323 12.422-11.268 17.767-17.744 13.82-16.746 23.624-36.885 27.927-59.065 1.043-5.301 1.73-10.735 2.107-16.258.2-2.994.311-5.988.311-9.049s-.111-6.055-.311-9.049zm-58.116 61.615c-5.878 8.318-13.131 15.615-21.449 21.492-5.856 4.192-12.178 7.675-18.943 10.358-10.381 4.192-21.738 6.455-33.628 6.455-11.889 0-23.246-2.263-33.627-6.433-6.8097-2.705-13.198-6.232-19.054-10.424-8.185-5.811-15.3275-12.953-21.139-21.137-4.0593-5.612-7.4309-11.645-10.1148-18.121-4.392-10.669-6.832-22.38-6.832-34.623s2.2404-23.067 6.3661-33.425c2.684-6.8311 6.2331-13.2632 10.4476-19.1852 5.8781-8.3174 13.1758-15.5702 21.4939-21.4478 5.7451-4.0811 12.0447-7.519 18.677-10.1806 10.4472-4.2363 21.8712-6.5208 33.8052-6.5208 11.933 0 23.335 2.3067 33.76 6.5208 6.632 2.6173 12.865 6.0551 18.61 10.1362 8.451 5.9442 15.816 13.33 21.76 21.8027 4.126 5.8111 7.564 12.1323 10.204 18.8307 4.126 10.358 6.388 21.625 6.388 33.447s-2.44 23.954-6.876 34.645c-2.617 6.321-5.922 12.265-9.826 17.766z"/><path d="m167.937 49.4164h-.732c-10.425-4.2363-21.827-6.5208-33.76-6.5208-11.934 0-23.336 2.3067-33.8052 6.5208h-.6877l8.5619-45.75684c8.385-1.68566 17.08-2.55067 25.953-2.55067 8.872 0 17.545.86501 25.886 2.55067l8.562 45.75684z"/><path d="m167.072 217.894-8.518 45.624c-8.118 1.552-16.503 2.373-25.065 2.373s-16.991-.821-25.132-2.418l-8.5176-45.557c10.3806 4.17 21.7376 6.432 33.6276 6.432 11.889 0 23.246-2.262 33.627-6.454z"/><path d="m235.768 49.4166-28.192 31.9389c-5.945-8.4505-13.309-15.8585-21.761-21.8027l31.942-28.1905c6.566 5.434 12.577 11.4891 18.011 18.0543z"/><path d="m80.7631 207.514-31.6975 27.991c-6.3218-5.257-12.1777-11.112-17.4347-17.434l27.9931-31.694c5.8116 8.184 12.9541 15.326 21.1391 21.137z"/><path d="m235.569 217.872c-5.368 6.454-11.313 12.42-17.768 17.744l-31.764-28.058c8.318-5.877 15.572-13.175 21.45-21.492z"/><path d="m80.9851 59.5971c-8.3181 5.8776-15.6159 13.1304-21.494 21.4478l-28.0819-31.8279c5.3236-6.4322 11.2682-12.3764 17.7009-17.7439z"/><path d="m265.58 124.451v18.076c-.377 5.545-1.064 10.957-2.107 16.258l-46.182 9.493c4.436-10.691 6.876-22.379 6.876-34.645 0-12.265-2.262-23.111-6.388-33.447l45.96 9.449c.865 4.857 1.486 9.803 1.819 14.816z"/><path d="m49.5094 168.256-45.98244-9.449c-1.17562-6.011-1.9298-12.199-2.24034-18.498v-13.618c.31054-5.811.95381-11.511 1.95198-17.079l45.805-9.382c-4.1258 10.358-6.3661 21.626-6.3661 33.425 0 11.8 2.44 23.954 6.8319 34.623z"/><path d="m223.081 89.6063 17.013 4.2141 5.301-8.4283-7.519-12.9973-9.938.377z"/><path d="m232.108 134.897 12.71-13.441 8.873 5.124v16.613l-8.873 5.145z"/><path d="m223.081 178.769 17.013-4.214 5.301 8.428-7.519 13.02-9.938-.4z"/><path d="m43.7864 178.769-17.0133-4.214-5.3014 8.428 7.5195 13.02 9.9596-.4z"/><path d="m34.6032 134.786-12.6213 12.155-8.8061-4.658v-15.016l8.8061-4.657z"/><path d="m43.7864 89.6063-17.0133 4.2141-5.3014-8.4283 7.5195-12.9973 9.9596.377z"/><path d="m88.8374 43.9825 4.2367-16.9897-8.429-5.3231-13.0206 7.5189.3771 9.9587z"/><path d="m132.845 34.8002-12.155-12.6203 4.658-8.8054h15.017l4.636 8.8054z"/><path d="m178.03 43.9825-4.237-16.9897 8.429-5.3231 13.021 7.5189-.378 9.9587z"/><path d="m178.029 223.261-4.214 17.012 8.429 5.301 13.021-7.496-.4-9.959z"/><path d="m134.043 232.466 12.156 12.598-4.658 8.828h-15.017l-4.636-8.828z"/><path d="m88.8594 223.261 4.2367 17.012-8.429 5.301-13.0206-7.496.3771-9.959z"/></g></svg>

<svg width="267" height="267" viewBox="0 0 267 267" fill="none" xmlns="http://www.w3.org/2000/svg">
<g clip-path="url(#clip0_5451_81520)">
<path d="M265.58 124.451C265.225 119.438 264.626 114.47 263.761 109.635C259.636 87.0557 249.809 66.4507 235.768 49.3944C230.334 42.8292 224.322 36.7742 217.757 31.3401C201.187 17.6996 181.268 7.96264 159.375 3.63759C151.012 1.95192 142.361 1.08691 133.489 1.08691C124.616 1.08691 115.921 1.95192 107.536 3.63759C85.643 8.007 65.6574 17.7661 49.1321 31.451C42.6994 36.8185 36.7547 42.7627 31.4311 49.1948C17.3015 66.2954 7.40846 86.9226 3.23832 109.612C2.24015 115.18 1.59688 120.88 1.28634 126.691C1.17543 128.931 1.10889 131.238 1.10889 133.5C1.10889 135.762 1.17543 138.069 1.28634 140.309C1.59688 146.608 2.35106 152.796 3.52668 158.807C7.82991 181.054 17.7229 201.304 31.653 218.072C36.91 224.393 42.7659 230.248 49.0877 235.505C65.857 249.389 86.1088 259.237 108.357 263.496C116.498 265.07 124.904 265.913 133.489 265.913C142.073 265.913 150.435 265.093 158.554 263.54C180.758 259.282 201.01 249.478 217.801 235.616C224.256 230.293 230.223 224.348 235.568 217.872C249.388 201.126 259.192 180.987 263.495 158.807C264.538 153.506 265.225 148.072 265.602 142.549C265.802 139.555 265.913 136.561 265.913 133.5C265.913 130.439 265.802 127.445 265.602 124.451H265.58ZM207.464 186.066C201.586 194.384 194.333 201.681 186.015 207.558C180.159 211.75 173.837 215.233 167.072 217.916C156.691 222.108 145.334 224.371 133.444 224.371C121.555 224.371 110.198 222.108 99.817 217.938C93.0073 215.233 86.619 211.706 80.763 207.514C72.578 201.703 65.4355 194.561 59.624 186.377C55.5647 180.765 52.1931 174.732 49.5092 168.256C45.1172 157.587 42.6772 145.876 42.6772 133.633C42.6772 121.39 44.9176 110.566 49.0433 100.208C51.7273 93.3769 55.2764 86.9448 59.4909 81.0228C65.369 72.7054 72.6667 65.4526 80.9848 59.575C86.7299 55.4939 93.0295 52.056 99.6618 49.3944C110.109 45.1581 121.533 42.8736 133.467 42.8736C145.4 42.8736 156.802 45.1803 167.227 49.3944C173.859 52.0117 180.092 55.4495 185.837 59.5306C194.288 65.4748 201.653 72.8606 207.597 81.3333C211.723 87.1444 215.161 93.4656 217.801 100.164C221.927 110.522 224.189 121.789 224.189 133.611C224.189 145.433 221.749 157.565 217.313 168.256C214.696 174.577 211.391 180.521 207.487 186.022L207.464 186.066Z" stroke="black" stroke-width="3" stroke-miterlimit="10"/>
<path d="M167.937 49.4164H167.205C156.78 45.1801 145.378 42.8956 133.445 42.8956C121.511 42.8956 110.109 45.2023 99.6398 49.4164H98.9521L107.514 3.65956C115.899 1.9739 124.594 1.10889 133.467 1.10889C142.339 1.10889 151.012 1.9739 159.353 3.65956L167.915 49.4164H167.937Z" stroke="black" stroke-width="3" stroke-miterlimit="10"/>
<path d="M167.072 217.894L158.554 263.518C150.436 265.07 142.051 265.891 133.489 265.891C124.927 265.891 116.498 265.07 108.357 263.473L99.8394 217.916C110.22 222.086 121.577 224.348 133.467 224.348C145.356 224.348 156.713 222.086 167.094 217.894H167.072Z" stroke="black" stroke-width="3" stroke-miterlimit="10"/>
<path d="M235.768 49.4166L207.576 81.3555C201.631 72.905 194.267 65.497 185.815 59.5528L217.757 31.3623C224.323 36.7963 230.334 42.8514 235.768 49.4166V49.4166Z" stroke="black" stroke-width="3" stroke-miterlimit="10"/>
<path d="M80.7631 207.514L49.0656 235.505C42.7438 230.248 36.8879 224.393 31.6309 218.071L59.624 186.377C65.4356 194.561 72.5781 201.703 80.7631 207.514Z" stroke="black" stroke-width="3" stroke-miterlimit="10"/>
<path d="M235.569 217.872C230.201 224.326 224.256 230.292 217.801 235.616L186.037 207.558C194.355 201.681 201.609 194.383 207.487 186.066L235.569 217.872Z" stroke="black" stroke-width="3" stroke-miterlimit="10"/>
<path d="M80.9851 59.5971C72.667 65.4747 65.3692 72.7275 59.4911 81.0449L31.4092 49.217C36.7328 42.7848 42.6774 36.8406 49.1101 31.4731L80.9851 59.5971V59.5971Z" stroke="black" stroke-width="3" stroke-miterlimit="10"/>
<path d="M265.58 124.451V142.527C265.203 148.072 264.516 153.484 263.473 158.785L217.291 168.278C221.727 157.587 224.167 145.899 224.167 133.633C224.167 121.368 221.905 110.522 217.779 100.186L263.739 109.635C264.604 114.492 265.225 119.438 265.558 124.451H265.58Z" stroke="black" stroke-width="3" stroke-miterlimit="10"/>
<path d="M49.5094 168.256L3.52696 158.807C2.35134 152.796 1.59716 146.608 1.28662 140.309V126.691C1.59716 120.88 2.24043 115.18 3.2386 109.612L49.0436 100.23C44.9178 110.588 42.6775 121.856 42.6775 133.655C42.6775 145.455 45.1175 157.609 49.5094 168.278V168.256Z" stroke="black" stroke-width="3" stroke-miterlimit="10"/>
<path d="M223.081 89.6063L240.094 93.8204L245.395 85.3921L237.876 72.3948L227.938 72.7718L223.081 89.6063Z" stroke="black" stroke-width="3" stroke-miterlimit="10"/>
<path d="M232.108 134.897L244.818 121.456L253.691 126.58V143.193L244.818 148.338L232.108 134.897Z" stroke="black" stroke-width="3" stroke-miterlimit="10"/>
<path d="M223.081 178.769L240.094 174.555L245.395 182.983L237.876 196.003L227.938 195.603L223.081 178.769Z" stroke="black" stroke-width="3" stroke-miterlimit="10"/>
<path d="M43.7864 178.769L26.7731 174.555L21.4717 182.983L28.9912 196.003L38.9508 195.603L43.7864 178.769Z" stroke="black" stroke-width="3" stroke-miterlimit="10"/>
<path d="M34.6032 134.786L21.9819 146.941L13.1758 142.283V127.267L21.9819 122.61L34.6032 134.786Z" stroke="black" stroke-width="3" stroke-miterlimit="10"/>
<path d="M43.7864 89.6063L26.7731 93.8204L21.4717 85.3921L28.9912 72.3948L38.9508 72.7718L43.7864 89.6063Z" stroke="black" stroke-width="3" stroke-miterlimit="10"/>
<path d="M88.8374 43.9825L93.0741 26.9928L84.6451 21.6697L71.6245 29.1886L72.0016 39.1473L88.8374 43.9825Z" stroke="black" stroke-width="3" stroke-miterlimit="10"/>
<path d="M132.845 34.8002L120.69 22.1799L125.348 13.3745H140.365L145.001 22.1799L132.845 34.8002Z" stroke="black" stroke-width="3" stroke-miterlimit="10"/>
<path d="M178.03 43.9825L173.793 26.9928L182.222 21.6697L195.243 29.1886L194.865 39.1473L178.03 43.9825Z" stroke="black" stroke-width="3" stroke-miterlimit="10"/>
<path d="M178.029 223.261L173.815 240.273L182.244 245.574L195.265 238.078L194.865 228.119L178.029 223.261Z" stroke="black" stroke-width="3" stroke-miterlimit="10"/>
<path d="M134.043 232.466L146.199 245.064L141.541 253.892H126.524L121.888 245.064L134.043 232.466Z" stroke="black" stroke-width="3" stroke-miterlimit="10"/>
<path d="M88.8594 223.261L93.0961 240.273L84.6671 245.574L71.6465 238.078L72.0236 228.119L88.8594 223.261Z" stroke="black" stroke-width="3" stroke-miterlimit="10"/>
</g>
<defs>
<clipPath id="clip0_5451_81520">
<rect width="267" height="267" fill="white"/>
</clipPath>
</defs>
</svg>
